X:113
T:Grey day light
T:Craigellachie Bridge
S:Anderson's Pocket Companion, Perth 1807 (Glen.42) p73
M:4/4
L:1/8
Q:1/4=120
K:D
D2(FD) ADFD|EFED   =c2(ce)|D2(FD) ADFD|EEdc d2(df) |
D2(FD) ADFD|E2(EG) =c2(ce)|dcBd   AGFA|EEdc d2(df)||
Adfd   gefd|efed    c3  d |Adfd   gefd|geaf d2(df) |
Adfd   gefd|efed   =c3  e |dcBd   AGFA|Ddce d2 d2 |]

